X:1
T:Title
T:Parts of T.V.T.V. 
T:Tim Smith
C:Composer
%%score 1 2
L:1/8
Q:1/8=240
M:7/8
K:C
V:1 treble nm="Piano"
V:2 bass nm="Organ"
V:1
"^B" _DF_A3/2AA/ _EC | B,E^G3/2=GG/ EC | D^FA3/2AA/ E^C | DF_B3/2AA/ FC | _DF_A3/2_BB/ G_E | %5
 ^F^A^c3/2BB/ F^D | DGB3/2AA/ E^C | DF_B3/2AA/ FC |][M:4/4]"^A" ^d2 d/^c/B c^f=dg- | %9
 gg gf/_e/ dc/_B/ cf | ^c ^f2 ^g/^a/ g^d b2 | d'^c'/b/ a ^f3 b2 |] %12
V:2
"Db" !stemless!D, !stemless!D, !stemless!D, !stemless!D,"Ab" !stemless!D, !stemless!D, !stemless!D, | %1
"E" !stemless!D, !stemless!D, !stemless!D, !stemless!D,"C" !stemless!D, !stemless!D, !stemless!D, | %2
"D" !stemless!D, !stemless!D, !stemless!D, !stemless!D,"A" !stemless!D, !stemless!D, !stemless!D, | %3
"Bb" !stemless!D, !stemless!D, !stemless!D, !stemless!D,"F" !stemless!D, !stemless!D, !stemless!D, | %4
"Db" !stemless!D, !stemless!D, !stemless!D, !stemless!D,"Eb" !stemless!D, !stemless!D, !stemless!D, | %5
"F#" !stemless!D, !stemless!D, !stemless!D, !stemless!D,"B" !stemless!D, !stemless!D, !stemless!D, | %6
"G" !stemless!D, !stemless!D, !stemless!D, !stemless!D,"A" !stemless!D, !stemless!D, !stemless!D, | %7
"Bb" !stemless!D, !stemless!D, !stemless!D, !stemless!D,"F" !stemless!D, !stemless!D, !stemless!D, |] %8
[M:4/4]"B" !stemless!D,2 !stemless!D,2"A" !stemless!D,2"Bb" !stemless!D,2 | %9
"Eb" !stemless!D,2 !stemless!D,2"Bb" !stemless!D,2"Csus4" !stemless!D,2 | %10
"F#" !stemless!D,2"G#" !stemless!D,2 !stemless!D,2"E" !stemless!D,2 | %11
 !stemless!D,2"G" !stemless!D,2"A" !stemless!D,2 !stemless!D,2 |] %12

